src/assets/botaoHome.svg

<?xml version="1.0" encoding="utf-8"?><svg version="1.1" id="Layer_1" xmlns="http://www.w3.org/2000/svg" xmlns:xlink="http://www.w3.org/1999/xlink" x="0px" y="0px" viewBox="0 0 122.88 122.88" style="enable-background:new 0 0 122.88 122.88" xml:space="preserve"><style type="text/css"><![CDATA[
	.st0{fill-rule:evenodd;clip-rule:evenodd;}
]]></style><g><path class="st0" d="M61.44,0c33.93,0,61.44,27.51,61.44,61.44c0,33.93-27.51,61.44-61.44,61.44C27.51,122.88,0,95.37,0,61.44 C0,27.51,27.51,0,61.44,0L61.44,0z M61.44,29L30.06,59.74l7.65,4.02l23.52-24.69l23.92,24.7l7.66-4.02L61.44,29L61.44,29L61.44,29z M39.39,67.13L39.39,67.13l22.08-22.09l22.02,22.09l0,0l0,0v21.67H67.4v-15.3H55.34v15.3H39.39V67.13L39.39,67.13L39.39,67.13 L39.39,67.13z M61.44,9.09c28.91,0,52.35,23.44,52.35,52.35c0,28.91-23.44,52.35-52.35,52.35S9.09,90.35,9.09,61.44 C9.09,32.53,32.53,9.09,61.44,9.09L61.44,9.09z"/></g></svg>

<svg width="123" height="123" viewBox="0 0 123 123" fill="none" xmlns="http://www.w3.org/2000/svg">
<g clip-path="url(#clip0_107_249)">
<path fill-rule="evenodd" clip-rule="evenodd" d="M61.44 0C95.37 0 122.88 27.51 122.88 61.44C122.88 95.37 95.37 122.88 61.44 122.88C27.51 122.88 0 95.37 0 61.44C0 27.51 27.51 0 61.44 0ZM61.44 29L30.06 59.74L37.71 63.76L61.23 39.07L85.15 63.77L92.81 59.75L61.44 29ZM39.39 67.13L61.47 45.04L83.49 67.13V88.8H67.4V73.5H55.34V88.8H39.39V67.13ZM61.44 9.09C90.35 9.09 113.79 32.53 113.79 61.44C113.79 90.35 90.35 113.79 61.44 113.79C32.53 113.79 9.09 90.35 9.09 61.44C9.09 32.53 32.53 9.09 61.44 9.09Z" fill="#FEA342"/>
</g>
<defs>
<clipPath id="clip0_107_249">
<rect width="122.88" height="122.88" fill="white"/>
</clipPath>
</defs>
</svg>
